X:1
T:Lady L. Ramsay's Reel
C:Nathaniel Gow
L:1/8
M:2/2
I:linebreak $
K:Bb
V:1 treble 
V:1
 e | Td2 (.f.d) ecce | d2 fd gefe | Td2 (.f.d) ecge | dBcA TB2 B :| B | (AB)GB FBDB |$ %7
 FBdB cCTC>B | (AB)GB FBdB | FBAc TB2 Bd | (AB)GB FBDB | FBdB cCTC>E |$ DFBF TG>ABg | fdec TB2 B || %14
